assets/svg/1F609.svg

<svg xmlns="http://www.w3.org/2000/svg" viewBox="0 0 64 64" enable-background="new 0 0 64 64"><path fill="#fbb041" d="M63.953,31.98c0,17.66-14.312,31.979-31.975,31.979C14.314,63.959,0,49.641,0,31.98     C0,14.316,14.314,0,31.979,0C49.641,0,63.953,14.316,63.953,31.98z"/><path fill="#fff" d="m27.365 28.481c0 5.379-2.907 9.735-6.5 9.735-3.588 0-6.5-4.355-6.5-9.735 0-5.376 2.911-9.733 6.5-9.733 3.593 0 6.5 4.357 6.5 9.733"/><path fill="#25333a" d="m25.07 28.481c0 2.816-1.882 5.099-4.205 5.099-2.326 0-4.208-2.283-4.208-5.099s1.882-5.098 4.208-5.098c2.323 0 4.205 2.282 4.205 5.098"/><g opacity=".987"><path fill="#e79d3c" d="m15.219 41.25c-5.668-12.158-5.921-25.25-.8-36.06-8.68 5.718-14.419 15.541-14.419 26.715 0 17.662 14.314 31.979 31.979 31.979.314 0 .62-.039.936-.047-7.332-6.17-13.509-13.596-17.696-22.582"/></g><g fill="#633d19"><path d="m52.617 31.11c0 3.158-4.261-.379-8.02-.379-3.763 0-8.02 3.537-8.02.379 0-3.156 4.26-6.564 8.02-6.564 3.761 0 8.02 3.409 8.02 6.564"/><path d="m23.496 45.49c.225 0 4.333 1.578 8.482 1.578 3.703 0 7.441-1.578 8.479-1.578.9 0 1.236 1.045.691 1.669-4.961 5.726-13.378 5.726-18.344 0-.54-.624-.204-1.669.692-1.669"/><path d="m24.07 9.284c-5.951-.411-11.346 2.03-15.08 6.66-1.622 2.01 1.222 4.892 2.859 2.86 3.134-3.885 7.215-5.82 12.221-5.475 2.606.182 2.588-3.865.0001-4.045"/><path d="m41.757 18.04c5.95-.411 11.346 2.03 15.08 6.66 1.622 2.01-1.222 4.892-2.859 2.86-3.134-3.885-7.215-5.82-12.221-5.475-2.606.182-2.588-3.865 0-4.045"/></g></svg>

<?xml version="1.0" encoding="UTF-8" standalone="no"?>
<!-- Generator: Adobe Illustrator 16.0.0, SVG Export Plug-In . SVG Version: 6.00 Build 0)  -->

<svg
   xmlns:dc="http://purl.org/dc/elements/1.1/"
   xmlns:cc="http://creativecommons.org/ns#"
   xmlns:rdf="http://www.w3.org/1999/02/22-rdf-syntax-ns#"
   xmlns:svg="http://www.w3.org/2000/svg"
   xmlns="http://www.w3.org/2000/svg"
   xmlns:sodipodi="http://sodipodi.sourceforge.net/DTD/sodipodi-0.dtd"
   xmlns:inkscape="http://www.inkscape.org/namespaces/inkscape"
   version="1.1"
   id="Layer_1"
   x="0px"
   y="0px"
   width="64px"
   height="64px"
   viewBox="0 0 64 64"
   enable-background="new 0 0 64 64"
   xml:space="preserve"
   inkscape:version="0.48.5 r10040"
   sodipodi:docname="1F609.svg"
   inkscape:export-filename="D:\TESTINGEMOJI\SVGTEST\1F609.png"
   inkscape:export-xdpi="90"
   inkscape:export-ydpi="90"><metadata
   id="metadata4210"><rdf:RDF><cc:Work
       rdf:about=""><dc:format>image/svg+xml</dc:format><dc:type
         rdf:resource="http://purl.org/dc/dcmitype/StillImage" /><dc:title></dc:title></cc:Work></rdf:RDF></metadata><defs
   id="defs4208" /><sodipodi:namedview
   pagecolor="#ffffff"
   bordercolor="#666666"
   borderopacity="1"
   objecttolerance="10"
   gridtolerance="10"
   guidetolerance="10"
   inkscape:pageopacity="0"
   inkscape:pageshadow="2"
   inkscape:window-width="640"
   inkscape:window-height="423"
   id="namedview4206"
   showgrid="false"
   inkscape:zoom="3.6875"
   inkscape:cx="32"
   inkscape:cy="32"
   inkscape:window-x="866"
   inkscape:window-y="338"
   inkscape:window-maximized="0"
   inkscape:current-layer="Layer_1" />
<g
   id="g4166">
	<g
   id="g4168">
		<g
   id="g4170">
			<path
   fill="#FBB041"
   d="M63.953,31.98c0,17.66-14.312,31.979-31.975,31.979C14.314,63.959,0,49.641,0,31.98     C0,14.316,14.314,0,31.979,0C49.641,0,63.953,14.316,63.953,31.98z"
   id="path4172" />
		</g>
	</g>
	<g
   id="g4174">
		<g
   id="g4176">
			<path
   fill="#FFFFFF"
   d="M27.365,28.481c0,5.379-2.907,9.735-6.5,9.735c-3.588,0-6.5-4.355-6.5-9.735     c0-5.376,2.911-9.733,6.5-9.733C24.458,18.748,27.365,23.105,27.365,28.481z"
   id="path4178" />
		</g>
	</g>
	<g
   id="g4180">
		<g
   id="g4182">
			<path
   fill="#25333A"
   d="M25.07,28.481c0,2.816-1.882,5.099-4.205,5.099c-2.326,0-4.208-2.283-4.208-5.099     s1.882-5.098,4.208-5.098C23.188,23.383,25.07,25.665,25.07,28.481z"
   id="path4184" />
		</g>
	</g>
	<g
   opacity="0.9866"
   id="g4186">
		<g
   id="g4188">
			<g
   id="g4190">
				<path
   fill="#E79D3C"
   d="M15.219,41.251c-5.668-12.158-5.921-25.246-0.8-36.065C5.739,10.904,0,20.727,0,31.901      C0,49.563,14.314,63.88,31.979,63.88c0.314,0,0.62-0.039,0.936-0.047C25.583,57.663,19.406,50.237,15.219,41.251z"
   id="path4192" />
			</g>
		</g>
	</g>
	<path
   fill="#633D19"
   d="M52.617,31.109c0,3.158-4.261-0.379-8.022-0.379c-3.763,0-8.022,3.537-8.022,0.379   c0-3.156,4.26-6.564,8.022-6.564C48.356,24.545,52.617,27.954,52.617,31.109z"
   id="path4194" />
	<g
   id="g4196">
		<g
   id="g4198">
			<path
   fill="#633D19"
   d="M23.496,45.495c0.225,0,4.333,1.578,8.482,1.578c3.703,0,7.441-1.578,8.479-1.578     c0.9,0,1.236,1.045,0.691,1.669c-4.961,5.726-13.378,5.726-18.344,0C22.264,46.54,22.6,45.495,23.496,45.495z"
   id="path4200" />
		</g>
	</g>
	<path
   fill="#633D19"
   d="M24.071,9.284c-5.951-0.411-11.346,2.03-15.081,6.66c-1.622,2.01,1.222,4.892,2.859,2.86   c3.134-3.885,7.215-5.82,12.221-5.475C26.676,13.511,26.658,9.464,24.071,9.284z"
   id="path4202" />
	<path
   fill="#633D19"
   d="M41.757,18.041c5.95-0.411,11.346,2.03,15.08,6.66c1.622,2.011-1.222,4.892-2.859,2.86   c-3.134-3.885-7.215-5.82-12.221-5.475C39.151,22.268,39.169,18.221,41.757,18.041z"
   id="path4204" />
</g>
</svg>
